icons/glasses.svg

<svg width="512" height="512" viewBox="0 0 512 512" fill="none" xmlns="http://www.w3.org/2000/svg">
<path d="M288.1 250.85C288.1 250.85 304.7 234.28 370.9 234.28C437.2 234.28 453.6 250.85 453.6 250.85V252.1C453.5 350.53 436.9 383.38 370.9 383.38C304.7 383.38 288.1 350.28 288.1 250.85ZM55.9999 252.1V250.85C55.9999 250.85 72.6999 234.28 138.9 234.28C205.1 234.28 221.8 250.85 221.8 250.85C221.8 350.28 205.1 383.38 138.9 383.38C72.9999 383.38 56.0999 350.53 55.9999 252.1ZM221.8 254.42C221.8 252.47 236.5 250.85 254.9 250.85C273.2 250.85 288.1 252.47 288.1 254.42H221.8ZM413.7 171.03C420.1 176.13 471.8 245.8 471.8 245.8L413.7 171.03ZM98.4999 171.03L40.3999 245.8C40.3999 245.8 91.9999 176.13 98.4999 171.03Z" stroke="white" stroke-width="32" stroke-linecap="round" stroke-linejoin="round"/>
</svg>

<svg xmlns="http://www.w3.org/2000/svg" viewBox="0 0 512 512"><path d="M288.1 250.85s16.6-16.57 82.8-16.57c66.3 0 82.7 16.57 82.7 16.57v1.25c-.1 98.43-16.7 131.28-82.7 131.28-66.2 0-82.8-33.1-82.8-132.53M56 252.1v-1.25s16.7-16.57 82.9-16.57 82.9 16.57 82.9 16.57c0 99.43-16.7 132.53-82.9 132.53-65.9 0-82.8-32.85-82.9-131.28m165.8 2.32c0-1.95 14.7-3.57 33.1-3.57 18.3 0 33.2 1.62 33.2 3.57zm191.9-83.39c6.4 5.1 58.1 74.77 58.1 74.77zm-315.2 0L40.4 245.8s51.6-69.67 58.1-74.77" style="stroke:currentcolor;stroke-linecap:round;stroke-linejoin:round;stroke-width:32;fill:none" /></svg>
